X:2706
T:Sally's Fancy
P:Mrs McLeod of Geastow
C:Athole Coll.
R:Strathspey (8x32)
B:RSCDS 27-6
Z:Anselm Lingnau <anselm@strathspey.org>
M:4/4
L:1/8
K:F
c/B/|"F"A>F c>F A<c cB/c/|"Gm"d>c B>A "C7"B<G G>B|\
  "F"A>F c>F A2 c2|"Bb"d>g "C7"cd/e/ "F"f2 f c/B/|
  "F"A>F c>F A<c cB/c/|"Gm"d>c B>A "C7"B<G G>B|\
  "F"A>F c>F A2 c2|"Bb"d>g "C7"cd/e/ "F"f2 f||
g|"F"a>f e>f c>f e>f|"Gm"d<g g>f "C7"e>g c>b|\
  "F"a>f e>f c>f e>f|"Gm"d>g "C7"cd/e/ "F"f2- f2|
  "F"c'/a/g/f/ e>f "Bb"d>b "F"c>a|"Gm"B>g "F"A>f "C7"d/c/B/A/ G>B|\
  "F"A>F c>A "Bb"B/c/d/e/ "Gm"f>g|"F"a>f "C7"e/f/g/e/ "F"f2- f|]
